lib/flags/m/JE.svg

<svg xmlns="http://www.w3.org/2000/svg" fill="none" viewBox="0 0 20 15"><mask id="JE_svg__a" width="20" height="15" x="0" y="0" mask-type="alpha" maskUnits="userSpaceOnUse"><path fill="#fff" d="M0 0H20V15H0z"/></mask><g mask="url(#JE_svg__a)"><path fill="#F7FCFF" fill-rule="evenodd" d="M0 0H20V15H0V0Z" clip-rule="evenodd"/><path fill="#F7FCFF" stroke="#E31D1C" stroke-width="1.688" d="M-1.68841 0.777984L-2.96875 0.00379562V1.5V14V15.4962L-1.68841 14.722L8.6477 8.47202L9.84175 7.75L8.6477 7.02798L-1.68841 0.777984Z"/><path fill="#F7FCFF" stroke="#E31D1C" stroke-width="1.688" d="M21.8256 0.77037L23.093 0.0342646V1.5V14V15.4657L21.8256 14.7296L11.0638 8.47963L9.80745 7.75L11.0638 7.02037L21.8256 0.77037Z"/><path fill="#E31D1C" fill-rule="evenodd" d="M8.5467 2.93939C8.5467 2.93939 8.01005 5.31334 9.86301 6.22509C9.86301 6.22509 11.6419 5.25551 11.2423 2.93939C11.2423 2.93939 10.4784 2.68384 9.8709 2.68384C9.26343 2.68384 8.5467 2.93939 8.5467 2.93939Z" clip-rule="evenodd"/><path fill="#FFD100" fill-rule="evenodd" d="M8.73903 3.43655C8.73903 3.43655 8.93721 3.34881 9.03531 3.43655 9.13341 3.52429 9.21379 3.42928 9.21379 3.37635 9.21379 3.32343 9.36956 3.14174 9.36956 3.28915 9.36956 3.43655 9.32107 3.51977 9.45799 3.51977 9.59491 3.51977 10.2115 3.31616 10.3593 3.37635 10.5071 3.43655 10.6203 3.42158 10.5827 3.33521 10.5451 3.24884 10.4485 3.19486 10.2625 3.242 10.0765 3.28915 10.1204 3.33521 9.95968 3.33521 9.79893 3.33521 9.62002 3.28915 9.62002 3.28915 9.62002 3.28915 9.67028 3.21169 9.8538 3.26679 10.0373 3.32188 10.2905 3.19855 10.3593 3.19855 10.4281 3.19855 10.6176 3.19486 10.6364 3.242 10.6552 3.28915 10.7696 3.33241 10.6824 3.37635 10.5952 3.4203 10.4514 3.44783 10.5503 3.50414 10.6493 3.56045 10.8768 3.5496 10.8877 3.60817 10.8987 3.66674 11.0065 3.7542 10.9633 3.7542 10.92 3.7542 10.8418 3.83669 10.7689 3.81158 10.6961 3.78646 10.6875 3.76441 10.7574 3.74406 10.8272 3.72371 10.8265 3.63815 10.7689 3.63815 10.7113 3.63815 10.7394 3.66813 10.6083 3.63815 10.4771 3.60817 10.3036 3.57484 10.314 3.63815 10.3244 3.70145 10.4098 3.79863 10.2523 3.81158 10.0948 3.82453 10.021 3.87652 9.99035 3.83465 9.95968 3.79278 9.85008 3.73698 9.93627 3.71909 10.0224 3.7012 10.1048 3.77991 10.1358 3.76706 10.1669 3.7542 10.2372 3.74705 10.1783 3.6926 10.1194 3.63815 10.0222 3.60609 10.1123 3.56533 10.2024 3.52458 10.1313 3.52374 9.95968 3.60817 9.78807 3.6926 9.69262 3.76435 9.54196 3.7542 9.3913 3.74406 9.33487 3.75775 9.28644 3.74406 9.23802 3.73037 9.00218 3.89528 8.93426 3.85343 8.86635 3.81158 8.6471 3.79552 8.68657 3.74406 8.72604 3.6926 8.77903 3.6661 8.83805 3.6926 8.89707 3.71909 8.95571 3.74559 8.99551 3.71909 9.03531 3.6926 9.15025 3.60169 9.12134 3.58351 9.09243 3.56533 9.12039 3.50414 8.9567 3.50414 8.79301 3.50414 8.73546 3.57234 8.6966 3.52937 8.65774 3.4864 8.73903 3.43655 8.73903 3.43655zM8.90259 4.21662C8.90259 4.21662 9.07682 4.13948 9.16307 4.21662 9.24932 4.29375 9.31998 4.21023 9.31998 4.1637 9.31998 4.11717 9.45693 3.95744 9.45693 4.08703 9.45693 4.21662 9.4143 4.28979 9.53467 4.28979 9.65505 4.28979 10.1971 4.11078 10.3271 4.1637 10.4571 4.21662 10.5565 4.20346 10.5235 4.12753 10.4904 4.05159 10.4055 4.00414 10.242 4.04558 10.0785 4.08703 10.1171 4.12753 9.97575 4.12753 9.83442 4.12753 9.67713 4.08703 9.67713 4.08703 9.67713 4.08703 9.72132 4.01893 9.88266 4.06737 10.044 4.11581 10.2665 4.00738 10.3271 4.00738 10.3876 4.00738 10.5542 4.00414 10.5707 4.04558 10.5872 4.08703 10.6878 4.12506 10.6111 4.1637 10.5344 4.20234 10.408 4.22654 10.495 4.27604 10.582 4.32555 10.782 4.31601 10.7917 4.3675 10.8013 4.419 10.8961 4.49589 10.858 4.49589 10.82 4.49589 10.7512 4.56841 10.6872 4.54633 10.6232 4.52425 10.6156 4.50486 10.677 4.48697 10.7384 4.46908 10.7378 4.39386 10.6872 4.39386 10.6366 4.39386 10.6613 4.42021 10.546 4.39386 10.4307 4.3675 10.2781 4.3382 10.2873 4.39386 10.2964 4.44951 10.3715 4.53494 10.233 4.54633 10.0945 4.55772 10.0297 4.60343 10.0027 4.56662 9.97575 4.5298 9.87939 4.48075 9.95516 4.46502 10.0309 4.44929 10.1033 4.51849 10.1306 4.50719 10.1579 4.49589 10.2198 4.4896 10.168 4.44173 10.1162 4.39386 10.0307 4.36567 10.1099 4.32984 10.1891 4.29401 10.1266 4.29327 9.97575 4.3675 9.82487 4.44173 9.74095 4.50481 9.6085 4.49589 9.47604 4.48697 9.42643 4.499 9.38386 4.48697 9.34129 4.47494 9.13394 4.61992 9.07423 4.58312 9.01453 4.54633 8.82177 4.53221 8.85647 4.48697 8.89117 4.44173 8.93776 4.41844 8.98965 4.44173 9.04153 4.46502 9.09309 4.48831 9.12808 4.46502 9.16307 4.44173 9.26412 4.3618 9.2387 4.34582 9.21329 4.32984 9.23787 4.27604 9.09396 4.27604 8.95005 4.27604 8.89945 4.336 8.86529 4.29822 8.83113 4.26045 8.90259 4.21662 8.90259 4.21662zM9.13391 5.00844C9.13391 5.00844 9.26603 4.94995 9.33143 5.00844 9.39683 5.06693 9.45042 5.00359 9.45042 4.96831 9.45042 4.93303 9.55426 4.8119 9.55426 4.91017 9.55426 5.00844 9.52194 5.06392 9.61322 5.06392 9.7045 5.06392 10.1155 4.92818 10.2141 4.96831 10.3127 5.00844 10.3881 4.99846 10.363 4.94088 10.338 4.8833 10.2736 4.84731 10.1496 4.87874 10.0256 4.91017 10.0548 4.94088 9.94768 4.94088 9.84051 4.94088 9.72124 4.91017 9.72124 4.91017 9.72124 4.91017 9.75475 4.85853 9.87709 4.89526 9.99944 4.93199 10.1682 4.84978 10.2141 4.84978 10.26 4.84978 10.3863 4.84731 10.3988 4.87874 10.4113 4.91017 10.4876 4.93901 10.4295 4.96831 10.3713 4.99761 10.2755 5.01596 10.3414 5.0535 10.4074 5.09104 10.5591 5.08381 10.5664 5.12285 10.5737 5.1619 10.6456 5.22021 10.6167 5.22021 10.5879 5.22021 10.5357 5.2752 10.4872 5.25846 10.4386 5.24171 10.4329 5.22701 10.4795 5.21345 10.526 5.19988 10.5256 5.14284 10.4872 5.14284 10.4488 5.14284 10.4675 5.16282 10.3801 5.14284 10.2927 5.12285 10.1769 5.10064 10.1839 5.14284 10.1909 5.18504 10.2478 5.24982 10.1428 5.25846 10.0377 5.26709 9.98857 5.30176 9.96812 5.27384 9.94768 5.24593 9.87461 5.20873 9.93207 5.1968 9.98952 5.18488 10.0444 5.23734 10.0651 5.22878 10.0858 5.22021 10.1327 5.21544 10.0934 5.17914 10.0542 5.14284 9.98938 5.12147 10.0494 5.0943 10.1095 5.06712 10.0621 5.06657 9.94768 5.12285 9.83327 5.17914 9.76964 5.22697 9.6692 5.22021 9.56876 5.21345 9.53114 5.22257 9.49885 5.21345 9.46657 5.20432 9.30934 5.31426 9.26407 5.28636 9.21879 5.25846 9.07263 5.24775 9.09894 5.21345 9.12525 5.17914 9.16058 5.16148 9.19992 5.17914 9.23927 5.1968 9.27837 5.21447 9.3049 5.1968 9.33143 5.17914 9.40806 5.11853 9.38878 5.10641 9.36951 5.0943 9.38815 5.0535 9.27902 5.0535 9.1699 5.0535 9.13153 5.09897 9.10563 5.07032 9.07972 5.04167 9.13391 5.00844 9.13391 5.00844z" clip-rule="evenodd"/></g></svg>

<svg xmlns="http://www.w3.org/2000/svg" fill="none" viewBox="0 0 20 15"><mask id="JE_svg__a" width="20" height="15" x="0" y="0" maskUnits="userSpaceOnUse"><path fill="#fff" d="M0 0h20v15H0z"/></mask><g mask="url(#JE_svg__a)"><path fill="#F7FCFF" fill-rule="evenodd" d="M0 0h20v15H0V0z" clip-rule="evenodd"/><path fill="#F7FCFF" stroke="#E31D1C" stroke-width="1.688" d="M-1.688.778l-1.28-.774v15.492l1.28-.774 10.336-6.25 1.194-.722-1.194-.722L-1.688.778z"/><path fill="#F7FCFF" stroke="#E31D1C" stroke-width="1.688" d="M21.826.77l1.267-.736v15.432l-1.267-.736-10.762-6.25-1.257-.73 1.257-.73L21.826.77z"/><path fill="#E31D1C" fill-rule="evenodd" d="M8.547 2.94S8.01 5.312 9.863 6.224c0 0 1.779-.97 1.38-3.286 0 0-.765-.255-1.372-.255-.608 0-1.324.255-1.324.255z" clip-rule="evenodd"/><path fill="#FFD100" fill-rule="evenodd" d="M8.739 3.437s.198-.088.296 0c.098.087.179-.008.179-.06 0-.054.156-.235.156-.088 0 .148-.049.23.088.23s.753-.203.901-.143c.148.06.261.046.224-.04-.038-.087-.135-.141-.32-.094-.187.047-.143.093-.303.093-.161 0-.34-.046-.34-.046s.05-.077.234-.022c.183.055.437-.068.505-.068.07 0 .259-.004.277.043.02.047.134.09.046.134-.087.044-.23.072-.132.128.1.056.327.046.338.104.01.059.119.146.075.146-.043 0-.121.083-.194.058-.073-.025-.082-.048-.012-.068.07-.02.07-.106.012-.106-.058 0-.03.03-.16 0-.132-.03-.305-.063-.295 0 .01.063.096.16-.062.174-.157.013-.231.065-.262.023-.03-.042-.14-.098-.054-.116.086-.018.169.061.2.048.03-.013.101-.02.042-.074-.059-.055-.156-.087-.066-.128.09-.04.02-.041-.152.043-.172.085-.267.156-.418.146-.15-.01-.207.004-.256-.01-.048-.014-.284.151-.352.11-.068-.042-.287-.058-.247-.11.039-.051.092-.078.151-.051.06.026.118.053.158.026.04-.026.154-.117.125-.135-.029-.019 0-.08-.164-.08s-.222.068-.26.025c-.04-.043.042-.092.042-.092zm.164.78s.174-.077.26 0c.086.077.157-.007.157-.053 0-.047.137-.207.137-.077s-.043.203.078.203c.12 0 .662-.18.792-.126.13.053.23.04.197-.036-.034-.076-.118-.124-.282-.082-.164.041-.125.082-.266.082-.142 0-.299-.04-.299-.04s.044-.069.206-.02c.161.048.384-.06.444-.06s.227-.004.244.038c.016.041.117.08.04.118-.077.038-.203.063-.116.112.087.05.287.04.297.092.01.051.104.128.066.128-.038 0-.107.072-.17.05-.065-.022-.072-.041-.011-.059.061-.018.06-.093.01-.093-.05 0-.026.026-.141 0-.115-.026-.268-.056-.259 0 .01.056.084.141-.054.152-.139.012-.203.057-.23.02-.027-.036-.124-.085-.048-.101s.148.054.176.042c.027-.011.089-.017.037-.065s-.137-.076-.058-.112c.08-.036.017-.037-.134.038-.151.074-.235.137-.368.128-.132-.009-.182.003-.224-.009-.043-.012-.25.133-.31.096-.06-.037-.252-.05-.218-.096.035-.045.082-.069.134-.045.052.023.103.046.138.023.035-.023.136-.103.11-.12-.025-.015 0-.069-.144-.069s-.195.06-.229.022.038-.081.038-.081zm.231.791s.132-.058.197 0c.066.059.12-.004.12-.04 0-.035.103-.156.103-.058s-.032.154.06.154c.09 0 .502-.136.6-.096.099.04.174.03.149-.027-.025-.058-.09-.094-.213-.062-.124.031-.095.062-.202.062-.107 0-.227-.03-.227-.03s.034-.052.156-.016c.122.037.291-.045.337-.045.046 0 .172-.003.185.029.012.031.089.06.03.09-.058.029-.154.047-.088.084.066.038.218.03.225.07.008.039.08.097.05.097-.028 0-.08.055-.129.038-.048-.016-.054-.031-.008-.045.047-.013.047-.07.008-.07-.038 0-.02.02-.107 0s-.203-.042-.196 0c.007.042.064.107-.041.115-.105.01-.154.044-.175.016-.02-.028-.093-.065-.036-.077.058-.012.112.04.133.032.02-.009.068-.014.028-.05-.039-.036-.104-.058-.044-.085.06-.027.013-.027-.101.029-.115.056-.178.104-.279.097-.1-.007-.138.003-.17-.007-.032-.009-.19.101-.235.073-.045-.028-.191-.038-.165-.073.026-.034.062-.052.1-.034.04.018.08.035.106.018.026-.018.103-.078.084-.09-.02-.013 0-.054-.11-.054s-.147.046-.173.017c-.026-.028.028-.062.028-.062z" clip-rule="evenodd"/></g></svg>
